symbols/web/nest_wifi_point_vento/materialsymbolsoutlined/nest_wifi_point_vento_wght200gradN25_24px.svg

<svg xmlns="http://www.w3.org/2000/svg" height="24" width="24"><path d="M8.775 19.85q-1.925 0-3.275-1.35-1.35-1.35-1.35-3.275v-6.45Q4.15 6.85 5.5 5.5q1.35-1.35 3.275-1.35h6.45q1.925 0 3.275 1.35 1.35 1.35 1.35 3.275v6.45q0 1.925-1.35 3.275-1.35 1.35-3.275 1.35ZM5.25 16.4h13.5q.1-.275.15-.55.05-.275.05-.625v-6.45q0-1.55-1.087-2.638-1.088-1.087-2.638-1.087h-6.45q-1.55 0-2.637 1.087Q5.05 7.225 5.05 8.775v6.45q0 .35.05.625t.15.55Zm3.9 2.55q0-.35.237-.587.238-.238.563-.238.325 0 .575.238.25.237.25.587h2.475q0-.35.238-.587.237-.238.562-.238.325 0 .563.238.237.237.237.587 1.325 0 2.112-.425.788-.425 1.313-1.2H16.9q0 .325-.237.562-.238.238-.563.238-.35 0-.575-.238-.225-.237-.225-.562h-2.475q0 .325-.25.562-.25.238-.575.238-.325 0-.562-.238-.238-.237-.238-.562H8.725q0 .325-.237.562-.238.238-.588.238-.325 0-.562-.238-.238-.237-.238-.562H5.725q.525.775 1.312 1.2.788.425 2.113.425ZM12 16.4Z"/></svg>

<svg xmlns="http://www.w3.org/2000/svg" height="24" width="24"><path d="M8.775 19.85Q6.85 19.85 5.5 18.5Q4.15 17.15 4.15 15.225V8.775Q4.15 6.85 5.5 5.5Q6.85 4.15 8.775 4.15H15.225Q17.15 4.15 18.5 5.5Q19.85 6.85 19.85 8.775V15.225Q19.85 17.15 18.5 18.5Q17.15 19.85 15.225 19.85ZM5.25 16.4H18.75Q18.85 16.125 18.9 15.85Q18.95 15.575 18.95 15.225V8.775Q18.95 7.225 17.863 6.137Q16.775 5.05 15.225 5.05H8.775Q7.225 5.05 6.138 6.137Q5.05 7.225 5.05 8.775V15.225Q5.05 15.575 5.1 15.85Q5.15 16.125 5.25 16.4ZM9.15 18.95Q9.15 18.6 9.387 18.363Q9.625 18.125 9.95 18.125Q10.275 18.125 10.525 18.363Q10.775 18.6 10.775 18.95H13.25Q13.25 18.6 13.488 18.363Q13.725 18.125 14.05 18.125Q14.375 18.125 14.613 18.363Q14.85 18.6 14.85 18.95Q16.175 18.95 16.962 18.525Q17.75 18.1 18.275 17.325H16.9Q16.9 17.65 16.663 17.887Q16.425 18.125 16.1 18.125Q15.75 18.125 15.525 17.887Q15.3 17.65 15.3 17.325H12.825Q12.825 17.65 12.575 17.887Q12.325 18.125 12 18.125Q11.675 18.125 11.438 17.887Q11.2 17.65 11.2 17.325H8.725Q8.725 17.65 8.488 17.887Q8.25 18.125 7.9 18.125Q7.575 18.125 7.338 17.887Q7.1 17.65 7.1 17.325H5.725Q6.25 18.1 7.037 18.525Q7.825 18.95 9.15 18.95ZM12 16.4Q12 16.4 12 16.4Q12 16.4 12 16.4Q12 16.4 12 16.4Q12 16.4 12 16.4Q12 16.4 12 16.4Q12 16.4 12 16.4Q12 16.4 12 16.4Q12 16.4 12 16.4Z"/></svg>
